X: 179
T: Aşkınla Harâb Gönlümü
C: Emin Ongan
O: Turkey
F: http://compmusic.upf.edu/node/140
N: mahur--sarki--curcuna--askinla_harab--emin_ongan
N: makam= mahur
N: form= sarki
N: usul= curcuna = 10/8
M: 10/8
L: 1/16
K: C ^9/8f   
Q: 1/4=168
%%MIDI tuningsystem comma53
d8-d2g4g4a2  | b4 a2a2 g2g2 {a}gfg6  | \
w:  Aş kın  |  la  *  ha *  râb   | 
a6a4e2 f2g2 e2d2  | d14d6  | 
w:  gön lü mü   |  gel   | 
c'8-c'2c'4c'2 b2a2  | b4 b2a2 g2f2 g2a2 {b}a2g2  | \
w:  gör   |  *  ne ye  *  dön  | 
g8 =fedc BAG6  | 
w:  düm   SAZ  | 
d8-d2g4g4a2  | b4 a2a2 g2g2 {a}gfg6  | \
w:  Aş kın  |  la  *  ha *  râb   | 
a6a4e2 f2g2 e2d2  | d14d6  | 
w:  gön lü mü   |  gel   | 
c'8-c'2c'4c'2 b2a2  | b4 b2a2 g2f2 g2a2 {b}a2g2  | \
w:  gör   |  *  ne ye  *  dön  | 
g4 g4 d2e2 f2g6  | 
w:  düm   *  SAZ  | 
f2g2 a3g f2e2 f2g3fe2  | a6a2 g2f3ed6  | \
w:  Âh *  *  *  *  lar  |  la  ge *  zen   | 
g6g4g2 =f2f4e2  | 
w:  bir  de li  *  dî  | 
e4 d2d2 e2d2 c2c4_1/4B2  | _1/4B8-_1/4B2^c4d6  | \
w:  vâ *  ne *  ye  *  dön  |  düm   SAZ  | 
c2d2 e3d c2_1/4B2 c2d3cB2  | 
w:  Âh *  *  *  *  lar  | 
c4 _1/4B2B2 A2A4A6  | {_1/4B}G6=B4c4d2 g4  | \
w:  la  *  ge *  zen   |  *  bir  de li  dî  | 
=f3e d2d2 ^c2_7/8BA Bedc BAGF  | 
w:  vâ *  *  ne *  ye  *  *  *  dön  | 
G8-G2c'2 _1/4b^ab6  | _1/4b3^a g2f2 e2^d2 e2f2 g2e2  | \
w:  düm   SAZ  |  Yan *  *  *  *  mış   | 
^a4 g2g2 f2f2 {g}f^ef6  | 
w:  ve  *  yı *  kıl  | 
g3f e2^d2 e2f2 g2^a2 _1/4b2c'2  | \
w:  mış  *  *  gi *  bi  *  vî  | 
_1/4b3^a g2g2 f2e2 f2g2 e2d2  | d14d6  | 
w:  râ *  *  ne *  ye  *  dön  |  düm    | 
z4 d2g4g4{a}g4a2  | b4 {c'}b2a2 g2f2 g2a2 {b}a2g2  | \
w:  vî *  râ  |  *  *  ne ye  *  dön  | 
g4 g4 d2e2 f2g6  | 
w:  düm   *  SAZ  | 
f2g2 a3g f2e2 f2g3fe2  | a6a2 g2f3ed6  | \
w:  Âh *  *  *  *  lar  |  la  ge *  zen   | 
g6g4g2 =f2f4e2  | 
w:  bir  de li  *  dî  | 
e4 d2d2 e2d2 c2c4_1/4B2  | _1/4B8-_1/4B2^c4d6  | \
w:  vâ *  ne *  ye  *  dön  |  düm   SAZ  | 
c2d2 e3d c2_1/4B2 c2d3cB2  | 
w:  Âh *  *  *  *  lar  | 
c4 _1/4B2B2 A2A4A6  | {_1/4B}G6=B4c4d2 g4  | \
w:  la  *  ge *  zen   |  *  bir  de li  dî  | 
=f3e d2d2 ^c2_7/8BA Bedc BAGF  | 
w:  vâ *  *  ne *  ye  *  *  *  dön  | 
G8-G2|
w:  düm    | 


